data/styles/clear/style-night/symbols/hindu-m.svg

<svg height="24" viewBox="0 0 24 24" width="24"><g fill="none" fill-rule="evenodd"><circle cx="12" cy="12" fill="#fff" opacity=".4" r="12"/><circle cx="12" cy="12" fill="#4d361f" r="11"/><path d="m7.16264095 9.46506354c1.05853058-.92361125 2.35744109-.98595532 2.3575674-.98595532 1.84939695-.1685277 2.28051445.83854016 2.28051445.83854016.5469496.87045732.1482954 1.85479822.1482954 1.85479822-.4032017 1.0367496-1.2467419 1.3899498-1.2467419 1.3899498.2363378.0044709.6348657.218701.6348657.218701.1205057.1230737.3986542.1321397.3986542.1321397.6860239.013661 1.0336463-.7656399 1.0336463-.7656399.7091397-1.439999 1.2005101-1.7361954 1.2005101-1.7361954.8065296-.70640052 1.7521334-.48310443 1.7521334-.48310443 1.107794.19597403 1.7011016 1.29419833 1.7011016 1.29419833.6813501 1.2304881.5700655 2.5474135.5700655 2.5474135 0 1.6223119-.8761299 2.447191-.8761299 2.447191-.9871619 1.0435801-2.1043032.797557-2.1043032.797557-1.5248904-.2870063-1.6731857-1.9594915-1.6731857-1.9594915-.0880425-1.0618363.1413479-1.2897274.1413479-1.2897274.1274532 1.9596157 2.0858611 1.3945449 2.0858611 1.3945449 1.633775-.4716788 1.6615646-2.1054164 1.6615646-2.1054164.1181057-.8271145-.3059381-1.640568-.3059381-1.640568-.3893068-.6014588-1.0520885-.414675-1.0520885-.414675-.5516232.1138835-.9501512.8156889-.9501512.8156889-.5238337.9889359-.9178142 1.2806615-.9178142 1.2806615-.744003.690504-1.9049761.3212831-1.9049761.3212831.7508241 1.2306123.5214337 2.3515636.5214337 2.3515636-.3198329 2.3377785-2.65832653 2.2307255-2.65832653 2.2307255-2.20624048-.0044709-3.24013939-1.9978666-3.24013939-1.9978666-1.09503599-1.9378822-.6161709-3.7123286-.6161709-3.7123286.54682326 4.3612285 3.36595042 4.065653 3.36595042 4.065653 1.2314576 0 1.7676703-.6880202 1.7676703-.6880202.8906562-1.3046304-.2047587-1.9815976-.2047587-1.9815976-.7995822-.5012363-1.68948053-.0273221-1.68948053-.0273221l-.66290794-2.0075535c.90151943.3463697 1.75895447.0524087 1.75895447.0524087 1.1496046-.3463697.7330135-1.1318802.7330135-1.1318802-.1443796-.3792804-.7005502-.4904317-.7005502-.4904317-.94560383-.25980835-2.53074707.9090809-2.53074707.9090809zm4.05386895-2.82249737s.2689274 1.60417999 2.2805145 1.822881c0 0 1.260763.09575155 2.4195887-1.20304185l1.0242989 1.23495903s-1.0289726 1.13473659-2.8274641 1.22129798c0 0-1.3117947.22329609-2.4334835-1.19857096.0001264 0-.6858975-.84301105-.4634545-1.8775252zm1.1123414.52868268 1.121815-1.17124885 1.1773942 1.09375344-1.1263624 1.12107553z" fill="#fff" opacity=".6"/></g></svg>

<svg width="24" height="24" viewBox="0 0 24 24">
  <g fill="none" fill-rule="evenodd">
    <circle cx="12" cy="12" r="12" fill="#FFF" opacity=".4"/>
    <circle cx="12" cy="12" r="11" fill="#4C351E"/>
    <path fill="#FFF" d="M7.16264095,9.46506354 C8.22117153,8.54145229 9.52008204,8.47910822 9.52020835,8.47910822 C11.3696053,8.31058052 11.8007228,9.31764838 11.8007228,9.31764838 C12.3476724,10.1881057 11.9490182,11.1724466 11.9490182,11.1724466 C11.5458165,12.2091962 10.7022763,12.5623964 10.7022763,12.5623964 C10.9386141,12.5668673 11.337142,12.7810974 11.337142,12.7810974 C11.4576477,12.9041711 11.7357962,12.9132371 11.7357962,12.9132371 C12.4218201,12.9268981 12.7694425,12.1475972 12.7694425,12.1475972 C13.4785822,10.7075982 13.9699526,10.4114018 13.9699526,10.4114018 C14.7764822,9.70500128 15.722086,9.92829737 15.722086,9.92829737 C16.82988,10.1242714 17.4231876,11.2224957 17.4231876,11.2224957 C18.1045377,12.4529838 17.9932531,13.7699092 17.9932531,13.7699092 C17.9932531,15.3922211 17.1171232,16.2171002 17.1171232,16.2171002 C16.1299613,17.2606803 15.01282,17.0146572 15.01282,17.0146572 C13.4879296,16.7276509 13.3396343,15.0551657 13.3396343,15.0551657 C13.2515918,13.9933294 13.4809822,13.7654383 13.4809822,13.7654383 C13.6084354,15.725054 15.5668433,15.1599832 15.5668433,15.1599832 C17.2006183,14.6883044 17.2284079,13.0545668 17.2284079,13.0545668 C17.3465136,12.2274523 16.9224698,11.4139988 16.9224698,11.4139988 C16.533163,10.81254 15.8703813,10.9993238 15.8703813,10.9993238 C15.3187581,11.1132073 14.9202301,11.8150127 14.9202301,11.8150127 C14.3963964,12.8039486 14.0024159,13.0956742 14.0024159,13.0956742 C13.2584129,13.7861782 12.0974398,13.4169573 12.0974398,13.4169573 C12.8482639,14.6475696 12.6188735,15.7685209 12.6188735,15.7685209 C12.2990406,18.1062994 9.96054697,17.9992464 9.96054697,17.9992464 C7.75430649,17.9947755 6.72040758,16.0013798 6.72040758,16.0013798 C5.62537159,14.0634976 6.10423668,12.2890512 6.10423668,12.2890512 C6.65105994,16.6502797 9.4701871,16.3547042 9.4701871,16.3547042 C10.7016447,16.3547042 11.2378574,15.666684 11.2378574,15.666684 C12.1285136,14.3620536 11.0330987,13.6850864 11.0330987,13.6850864 C10.2335165,13.1838501 9.34361817,13.6577643 9.34361817,13.6577643 L8.68071023,11.6502108 C9.58222966,11.9965805 10.4396647,11.7026195 10.4396647,11.7026195 C11.5892693,11.3562498 11.1726782,10.5707393 11.1726782,10.5707393 C11.0282986,10.1914589 10.472128,10.0803076 10.472128,10.0803076 C9.52652417,9.82049925 7.94138093,10.9893885 7.94138093,10.9893885 L7.16264095,9.46506354 Z M11.2165099,6.64256617 C11.2165099,6.64256617 11.4854373,8.24674616 13.4970244,8.46544717 C13.4970244,8.46544717 14.7577874,8.56119872 15.9166131,7.26240532 L16.940912,8.49736435 C16.940912,8.49736435 15.9119394,9.63210094 14.1134479,9.71866233 C14.1134479,9.71866233 12.8016532,9.94195842 11.6799644,8.52009137 C11.6800908,8.52009137 10.9940669,7.67708032 11.2165099,6.64256617 Z M12.3288513,7.17124885 L13.4506663,6 L14.6280605,7.09375344 L13.5016981,8.21482897 L12.3288513,7.17124885 Z" opacity=".6"/>
  </g>
</svg>
